icons/clock/clock-11.svg

<svg width="14" height="14" viewBox="0 0 14 14" fill="none"
    xmlns="http://www.w3.org/2000/svg">
    <circle cx="7" cy="7" r="4.5" stroke="green"/>
    <path d="M7.00026 3.5C7.27629 3.50014 7.50026 3.72394 7.50026 4V7C7.50026 7.00491 7.49845 7.00977 7.49831 7.01465C7.49769 7.03509 7.49457 7.05506 7.49147 7.0752C7.48958 7.08771 7.48842 7.10012 7.48561 7.1123C7.48104 7.13206 7.47399 7.15085 7.46706 7.16992C7.46312 7.18075 7.45999 7.19169 7.45534 7.20215C7.44694 7.22111 7.43679 7.23897 7.42604 7.25684C7.41979 7.26718 7.41348 7.27727 7.40651 7.28711C7.39662 7.30113 7.38569 7.31411 7.37429 7.32715C7.36377 7.33917 7.35367 7.35134 7.34206 7.3623C7.33131 7.37243 7.31965 7.38137 7.30788 7.39062C7.29244 7.40281 7.27686 7.41448 7.26003 7.4248C7.25651 7.42696 7.25385 7.43054 7.25026 7.43262C7.24393 7.43628 7.23618 7.43806 7.22976 7.44141C7.21103 7.45117 7.19216 7.4604 7.17214 7.46777C7.15925 7.47253 7.14615 7.47585 7.13308 7.47949C7.11479 7.48456 7.09647 7.48921 7.07741 7.49219C7.06178 7.49464 7.04621 7.49514 7.03054 7.49609C7.02046 7.4967 7.01049 7.49999 7.00026 7.5C6.99478 7.5 6.98911 7.49822 6.98366 7.49805C6.96521 7.49742 6.94718 7.49483 6.92897 7.49219C6.91413 7.49007 6.89942 7.48875 6.88503 7.48535C6.86904 7.48156 6.8537 7.47604 6.83815 7.4707C6.82154 7.46499 6.8051 7.45951 6.78933 7.45215C6.77967 7.44766 6.77038 7.44261 6.76101 7.4375C6.74139 7.42676 6.72227 7.41552 6.70436 7.40234C6.69563 7.39593 6.68829 7.38787 6.67995 7.38086C6.66507 7.36834 6.65031 7.35595 6.63698 7.3418C6.62515 7.32921 6.6144 7.31574 6.60378 7.30176C6.59445 7.28953 6.58462 7.27773 6.57643 7.26465C6.57337 7.25974 6.56959 7.25505 6.56667 7.25L5.56667 5.51758C5.42893 5.27849 5.51125 4.97295 5.75026 4.83496C5.98927 4.6971 6.29475 4.77875 6.43288 5.01758L6.50026 5.13379V4C6.50026 3.72386 6.72412 3.5 7.00026 3.5Z" fill="red"/>
</svg>

<svg xmlns="http://www.w3.org/2000/svg" width="14" height="14" fill="none" viewBox="0 0 14 14"><circle cx="7" cy="7" r="4.5" stroke="green"/><path fill="red" d="M7 3.5a.5.5 0 0 1 .5.5v3l-.002.015q0 .03-.007.06l-.005.037q-.008.03-.019.058l-.012.032a.5.5 0 0 1-.08.125l-.033.035q-.015.015-.034.029l-.048.034-.01.008-.02.008-.058.027q-.02.007-.039.011l-.056.013q-.022.003-.046.004l-.03.004-.017-.002-.055-.006q-.023-.002-.044-.007-.024-.006-.047-.014-.024-.008-.049-.019a.5.5 0 0 1-.085-.05l-.024-.021q-.023-.018-.043-.04l-.033-.04q-.016-.016-.028-.036l-.01-.015-1-1.732a.5.5 0 0 1 .867-.5l.067.116V4a.5.5 0 0 1 .5-.5"/></svg>
